X: 39393
T: Tap Room, The
R: reel
M: 4/4
K: Edorian
E2(3ABc d2Bc|dBAF DEFD|E2BE dEBE|dBAF BEED|
E2(3ABc d2Bc|dBAF DEF2|afge fdec|1 dBAF BEED:|2 dBAF BEE2||
Bdef gfed|BdAF DEFD|Bdef gfed|BdAF BEE2|
Bdef gfed|BdAF DEF2|afge fdec|1 dBAF BEE2:|2 dBAF BEED||

